X:39
T:Lady Berkley's Whim. Ru1.039
%%VWML:RutherfordVol1-2248-p20-0p20
Z:Transcription by Village Music Project, Steve Mansfield July 2015
F:http://www.village-music-project.org.uk/
F:http://www.vwml.org/record/RutherfordVol1/2248/p20
M:C|
L:1/8
W:Lead down between the 2d Cou. & without Side the 3d Cou. .|
W:Lead up between the 3d Cou. & without Side the 2d :|
W:foot it Corners & turn .|. foot it the other Corners & turn :|
W:Lead out Sides & turn .|| Lead out the other Sides and
W:turn :|| Foot it to your Partner & turn :|
Q:2/4=75
K:A
C2(E<A) (c<e)(c<A) | B2 (d<B) F<BG<E | A2 E=G F<DC<B, | C<E c<B A2 A,2 :|
|: c2 (c<A) c2 c<A | c<Ae<c A2c2 | B2B<F B2B<F | G<AE<A C2A,2 :|
|: c2 (e/d/c) (e/d/c) (e/d/c) | eagf e2c2 | d2f<d f<d f<d | B<fe<d c2A2 :|
|: A2E<C A2E<C | D<BA<G A2E2 | A2E<C A2E<C | D2E2 [A,4E4A4] :|
T:Over the Water. Ru1.040
B:Rutherford's Country Dances Vol 1, 1756
Z:village music project, Steve Mansfield July 2015
T:..to Charlie,aka. Ru1.040
M:6/8
L:1/8
W:Cast off & Hands round four with the Bottom
W:Cou. .| Cast up & Hands round four with
W:ye 2d Cou. :| Gallop down the middle & up
W:again and cast off .|. Hands round all Six :|
Q:3/8=90
K:F
|:c2c c2d | ABG FAB | cdc cAc | d3 f3 |
c2c c2d | B2A G2F | fed cAc | d3 f3 :|
|: f2g a2b | gaf gec | f2g aba | g3 c3 |
f2g aba | gaf gec | (d/e/)fd cAc | d3 f3 :|
